app/images/icons/tick-icon.svg

<?xml version="1.0" encoding="UTF-8" standalone="no"?>
<svg width="76px" height="76px" viewBox="0 0 76 76" version="1.1" xmlns="http://www.w3.org/2000/svg" xmlns:xlink="http://www.w3.org/1999/xlink" xmlns:sketch="http://www.bohemiancoding.com/sketch/ns">
    <!-- Generator: Sketch 3.1 (8751) - http://www.bohemiancoding.com/sketch -->
    <title>tick-icon</title>
    <desc>Created with Sketch.</desc>
    <defs></defs>
    <g id="Page-1" stroke="none" stroke-width="1" fill="none" fill-rule="evenodd" sketch:type="MSPage">
        <g id="tick-icon" sketch:type="MSLayerGroup" fill="#1B1A19">
            <path d="M52.6116333,25.7133333 L29.5494333,47.2466667 L22.4282333,40.1546 C21.9342333,39.6466667 21.1324333,39.6466667 20.6371667,40.1546 C20.1431667,40.5346 20.1431667,41.4212667 20.6371667,41.9266667 L28.6235,49.9066667 C28.8692333,50.16 29.1935,50.2866667 29.5190333,50.2866667 C29.8281,50.2866667 30.1384333,50.16 30.3829,49.9066667 L54.3393667,27.4866667 C54.8511,27.1066667 54.8789667,26.2212667 54.4014333,25.7133333 C53.9239,25.2066667 53.1208333,25.2066667 52.6116333,25.7133333" id="Fill-988" sketch:type="MSShapeGroup"></path>
            <path d="M38,73.4666667 C18.4439333,73.4666667 2.53333333,57.6333333 2.53333333,38 C2.53333333,18.4933333 18.4439333,2.53333333 38,2.53333333 C57.5573333,2.53333333 73.4666667,18.4933333 73.4666667,38 C73.4666667,57.6333333 57.5573333,73.4666667 38,73.4666667 L38,73.4666667 Z M38,0 C17.0468,0 0,17.1 0,38 C0,59.0266667 17.0468,76 38,76 C58.9532,76 76,59.0266667 76,38 C76,17.1 58.9532,0 38,0 L38,0 Z" id="Fill-989" sketch:type="MSShapeGroup"></path>
        </g>
    </g>
</svg>

<svg width="76" height="76" viewBox="0 0 76 76" xmlns="http://www.w3.org/2000/svg">
    <desc>
        Created with Sketch.
    </desc>
    <g fill="#1B1A19">
        <path d="M52.612 25.713L29.55 47.247l-7.122-7.092c-.494-.508-1.296-.508-1.79 0-.495.38-.495 1.266 0 1.772l7.985 7.98c.246.253.57.38.896.38.308 0 .618-.127.863-.38l23.956-22.42c.51-.38.54-1.266.06-1.774-.476-.506-1.28-.506-1.788 0"/>
        <path d="M38 73.467C18.444 73.467 2.533 57.633 2.533 38 2.533 18.493 18.443 2.533 38 2.533S73.467 18.493 73.467 38c0 19.633-15.91 35.467-35.467 35.467zM38 0C17.047 0 0 17.1 0 38c0 21.027 17.047 38 38 38s38-16.973 38-38C76 17.1 58.953 0 38 0z"/>
    </g>
</svg>
